X: 9421
T: Danish, The
R: polka
M: 2/4
K: Dmajor
FA FA|GB E>G|FA df|e/d/c/B/ A/B/A/G/|
FA FA|GB E>G|FA ce|d2 d2:|
c/d/|:eA A d/e/|fd d e/f/|gf ed|c/d/c/B/ A/B/A/G/|
FA FA|GB E>G|FA ce|d2 d2:|
A/d/|:f2 g2|a2 b>g|ee ag|gf f A/d/|
f2 g2|a2 b>g|ee ac|ed d2:|

